X: 25233
T: Mama's Pet
R: reel
M: 4/4
K: Gmajor
G2FG EG DE|G2BG dGBG|G2FG EFGA|(3Bcd ed (3Bcd AB|
FEED EDBA|GB B2 GB B2|FEED EFGA||(3Bcd ed (3Bcd gf||
eAA2 eAA2|B~G3|DGBd|eAA2 eAA2|(3Bcd ed (3Bcd gf|
e2dg edBA|~G3A BABd|edef gfge|g2fg edBA||

